!! Stephen C. Foster, "Beautiful Dreamer"
!! from 'Stephen Foster Song Book' Dover Publications (New York) pp. 6-9
!! NOTE:  Leading and trailing bars of rest have been omitted.
**kern
*M9/8
*MM90
*E-:
=1
8ee-
8dd
8ee-
4.b-
4.g
=2
8f
8en
8f
[4.cc
4.cc]
=3
8b-
8dd
8cc
8cc
8b-
8a-
8a-
8g
8f
=4
[4.g
4.g_
4.g]
=5
8ee-
8dd
8ee-
4.b-
4.g
=6
8f
8en
8f
[4.cc
4.cc]
=7
8b-
8dd
8cc
8cc
8b-
8a-
8a-
8g
8f
=8
[4.e-
4.e-_
4.e-]
=9
8b-
8a-
8f
4.d
4.cc
=10
8cc
8b-
8g
[4.e-
4.e-]
=11
8ee-
8dd
8ee-
4.cc
4ff
8ee-
=12
8dd
8ee-
8cc
[4.b-
4.b-]
=13
8ee-
8dd
8ee-
4.b-
4.g
=14
8f
8en
8f
[4.cc
4.cc]
=15
8b-
8dd
8cc
8cc
8b-
8a-
8a-
8g
8f
=16
[4.g
4.g_
4.g]
=17
8cc
8dd
8ee-
8ee-
8b-
8g
{16g
16a-}
8g
8f
=18
[4.e-
4.e-_
4.e-]
=19
4.r
4.r
4.r
=20
4.r
4.r
4.r
=21
8ee-
8dd
8ee-
4.b-
4.g
=22
8f
8en
8f
[4.cc
4.cc]
=23
8b-
8dd
8cc
8cc
8b-
8a-
{8a-
8g}
8f
=24
[4.g
4.g_
4.g]
=25
8ee-
8dd
8ee-
4.b-
4.g
=26
8f
8en
8f
[4.cc
4.cc]
=27
8b-
8dd
8cc
8cc
8b-
8a-
8a-
8g
8f
=28
[4.e-
4.e-_
4.e-]
=29
8b-
8a-
8f
4.d
4.cc
=30
8cc
8b-
8g
[4.e-
4.e-]
=31
8ee-
8dd
8ee-
4.cc
4ff
8ee-
=32
8dd
8ee-
8cc
[4.b-
4.b-]
=33
8ee-
8dd
8ee-
4.b-
4.g
=34
8f
8en
8f
[4.cc
4.cc]
=35
8b-
8dd
8cc
8cc
8b-
8a-
8a-
8g
8f
=36
[4.g
4.g_
4.g]
=37
8cc
8dd
8ee-
8ee-
8b-
8g
{16b-
16a-}
8g
8f
=38
[4.e-
4.e-_
4.e-]
==
*-
